X:1
T:Rhythmodik
T:Tom Brier https://musescore.com/user/31487787/scores/5479866 Transcribed from: https://www.youtube.com/watch?v=X2aUu-WSwRg https://www.youtube.com/watch?v=jNSckRT6znk
T:Rhythmodik
C:Tom Brier
%%score { ( 1 2 ) | 3 }
L:1/8
Q:1/2=100
M:4/4
K:C
V:1 treble nm="Piano" snm="Pno."
V:2 treble 
V:3 bass 
V:1
"^Allegroㅤ""^Swing 8ths." (3z e[gc'e'] z c [_e_ac'] z B[dgb] | (3z E[Gce] z C [_E_Ac] z B,[DGB] | %2
 z _A,[CF_A] z _B, [DG_B]2 [CFA] | [B,FG]2 z2 [GBdfg]2 z2 |: [cegc']2 z [Acea]- [Acea]g (3^deg- | %5
 [cegc'] [cegc']2 [Acea]- [Acea]g [cec']2 | [d^fad']2 z [Bdfb]- [Bdfb]a (3^efa- | %7
 [d^fad'] [dfad']2 [Bdfb]- [Bdfb]a [dfd']2 | [e^gbe']2 z [Begb]- [Begb] [egbe']2 b- | %9
 [dbd'][cac'][dbd'][ec'e']- [ec'e']cd^d | [^Fce]de[Fcd^f]- [Fcdf] [cfb]2 f | %11
 [Ba]gd[B^dg]- [Bdg]g [b^d'g']2 | [cegc']2 z [Acea]- [Acea]g (3^deg- | %13
 [cegc'] [cegc']2 [Acea]- [Acea]g [cec']2 | [d^fad']2 z [Bdfb]- [Bdfb]a (3^efa- | %15
 [d^fad'] [dfad']2 [Bdfb]- [Bdfb]a [dfd']2 | [e^gbe']2 z [Begb]- [Begb] [egbe']2 b- | %17
 [dbd'][cac'][dbd'][ec'e']- [ec'e']cd^d |1 [^Fce]2 aa ag (3^deg | c [FA]2 [EGc]- [EGc]4 :|2 %20
 [^Fce]2 ba ag (3^deg | c [FA]2 [EGc]- [EGc]3 [ce] |: [EG] [ce]2 [_ac'] [c_e] [ac']2 [_g_b] | %23
 [_B_d] [_g_b]2 [fa] [=B=d] [fa]2 (3e/f/^f/ | gec[ceg]- [ceg]2 [F_A]C | %25
 _A,[G_B]D_B, [F_A]C [=B,FG][ce] | [EG] [ce]2 [_ac'] [c_e] [ac']2 [_g_b] | %27
 [_B_d] [_g_b]2 [fa] [=B=d] [fa]2 (3e/^f/^^f/ | ^geB[Beg]- [Beg]2 [^FA]D | %29
 A,[EG]CG, [^FA]A, [^GB]2 | [F^c] [Ad]2 [Af]- [Af] [da]2 e | %31
 g [_Acf]2 [f_ac']- [fac']d' [fac'] (3e/f/^f/ | g [cegc']2 c [_A_e] [Ace_a]2 ^d | %33
 e [EG]2 e [^FA]e [=FBd][ce] | [EG] [ce]2 [ac'] [ce] [ac']2 [c'e'] | %35
 [e^f] [c'e']2 [egbe']- [egbe']b[dd'][cegc']- | [cegc']_A[_A,C]_B [_B,D] [=B,DF=B]2 G- |1 %37
 [EGc]G[^CA][DFG]- [DFG] [FBdg]2 [ce] :|2 [EGc]G[^CA][DFG]- [DFG] [FBdg]3 || %39
 [cegc']2 z [Acea]- [Acea]g (3^deg- | [cegc'] [cegc']2 [Acea]- [Acea]g [cec']2 | %41
 [d^fad']2 z [Bdfb]- [Bdfb]a (3^efa- | [d^fad'] [dfad']2 [Bdfb]- [Bdfb]a [dfd']2 | %43
 [e^gbe']2 z [Begb]- [Begb] [egbe']2 b- | [dbd'][cac'][dbd'][ec'e']- [ec'e']cd^d | %45
 [^Fce]de[Fc^f]- [Fcf] [cfb]2 f | [Ba]gd[B^dg]- [Bdg]g' [gb^d']2 | %47
 [cegc']2 z [Acea]- [Acea]g (3^deg- | [cegc'] [cegc']2 [Acea]- [Acea]g [cec']2 | %49
 [d^fad']2 z [Bdfb]- [Bdfb]a (3^efa- | [d^fad'] [dfad']2 [Bdfb]- [Bdfb]a [dfd']2 | %51
 [e^gbe']2 z [Begb]- [Begb] [egbe']2 b- | [dbd'][cac'][dbd'][ec'e']- [ec'e']cd^d | %53
 [^Fce]2 aa ag (3^deg | c [FA]2 [EGc]- [EGc]!8va(!^d'[fbg']e' |: [fbg']e'd'[fa]- [fa]b[fe']b | %56
 [egd']c'a[eg]- [eg]!8va)!e[cg]e | [FBg]ed[FA]- [FA]B[Fe]B | [E_Bd] [EB_d]2 [EBc]- [EBc]^g[Ba]e | %59
 (3gag fa gf (3cd^d | [Ge] [Gceg]2 [Acea]- [Acea][Bb][cc'][B^d^fb]- | %61
 [Bdfb]b[c^d^fa]b [Bdg] [Adf]2 B- | [Be^gb]B-[B_e_gb][Bdfb]- [Bdfb]!8va(!e'[fbg']e' | %63
 [fbg']e'd'[fa]- [fa]b[fe']b | [egd']c'a[eg]- [eg]!8va)!e[cg]e | [FBg]ed[FA]- [FA]B[Fe]B | %66
 [E_Bd] [EB_d]2 [EBc]- [EBc]^g[Ba]e | [Ag] [cf]2 [f_ac']- [fac']d' [fac'] (3e/f/^f/ | %68
 g [cegc']2 [C_E_Ac]- [CEAc][^C=E=A^c][DF_Bd][^D^F=B^d] | %69
 [EGce] g2 [e^fae']- [efae']c'[=d=f=d']c- |1 [cegc'] [d_ea]2 g [c=egc']!8va(!e'[fbg']e'!8va)! :|2 %71
 [cegc']g (3aga [c=egc']2 [^A^d][Be] |: [Gd] [Bg]2 [G,G]- [G,G]2 [^A^d][Be] | %73
 [Gd] [Bg]2 [G,G]- [G,G]2 [^d^g][ea] | [cg] [ec']2 [Cc]- [Cc]2 [^d^g][ea] | %75
 [cg] [ec']2 [Cc]- [Cc]2!8va(! [^a^d'][be'] | g'g[^ae'][bd']- [bd']g[a^d'][be'] | %77
 g'g[fe'][ec']- [ec']!8va)!d'^d'e' | [^fa] [c'e']2 a [fc'd']4 | %79
 [fa] [be']2 [fa] [bd']2 [^A^d][Be] | [Gd] [Bg]2 [G,G]- [G,G]2 [^A^d][Be] | %81
 [Gd] [Bg]2 [G,G]- [G,G]2 [^d^g][ea] | [cg] [ec']2 [Cc]- [Cc]2 [^d^g][ea] | %83
 [cg] [ec']2 [Cc]- [Cc]2 [cg][ec'] | [c_a][_ec'] z [_Ae] [ca] z [_Ec][Ae] | %85
 z [C_A][_Ec] z [_A,E][CA] z [GBdg]- | [GBdg]f[FAd]_e [_EG_B]d[DFG=B]G- |1 %87
 [EGc]2 z [cegc']- [cegc']2 [^A^d][Be] :|2 [EGc]4 .[cegc']2 z2 |] %89
V:2
 [CGc]2 [_A,_E_A]2- [A,EA] [G,DG]3 | x8 | x8 | x8 |: x6 G2 | x8 | x6 A2 | x8 | x8 | x8 | x8 | x8 | %12
 x6 G2 | x8 | x6 A2 | x8 | x8 | x8 |1 x2 [c^f]2 [B=f]2 B2 | x8 :|2 x2 [c^f]2 [B=f]2 B2 | x8 |: x8 | %23
 x8 | x8 | x8 | x8 | x8 | x8 | x8 | x8 | x8 | x8 | x8 | x8 | x8 | x8 |1 x8 :|2 x8 || x4 x2 G2 | %40
 x8 | x6 A2 | x8 | x8 | x8 | x8 | x8 | x6 G2 | x8 | x6 A2 | x8 | x8 | x8 | x2 [c^f]2 [B=f]2 B2 | %54
 x5!8va(! x3 |: x8 | x5!8va)! x3 | x8 | x8 | A2 x2 A2 _A2 | x8 | x8 | x5!8va(! x3 | x8 | %64
 x5!8va)! x3 | x8 | x8 | x8 | x8 | x8 |1 x5!8va(! x3!8va)! :|2 x2 [d_e]2 x4 |: x8 | x8 | x8 | %75
 x6!8va(! x2 | x8 | x5!8va)! x3 | x8 | x8 | x8 | x8 | x8 | x8 | x8 | x8 | x8 |1 x8 :|2 x8 |] %89
V:3
 x8 | [C,G,C]2 [_A,,_E,_A,]2- [A,,E,A,] [G,,D,G,]3 | [F,,C,F,]3 [G,,D,G,]- [G,,D,G,]2 [F,,C,F,]2 | %3
 [G,,D,G,]2 [D,,D,]2 [G,,,G,,]3 C,,- |: [C,,G,,E,]2 .[G,CE]2 [G,,,G,,]2 .[G,CE]2 | %5
 [C,,C,]2 .[G,CE]2 [G,,,G,,]2 [C,,C,][^C,,^C,] | [D,,D,]2 .[D,^F,A,C]2 [A,,,A,,]2 .[D,F,A,C]2 | %7
 [D,,D,]2 .[D,^F,A,C]2 [A,,,A,,]2 [D,,D,][^D,,^D,] | [E,,E,]2 .[E,^G,B,D]2 [^G,,G,]2 .[E,G,B,D]2 | %9
 [A,,E,A,]2 .[E,A,C]2 [E,,E,]2 .[E,A,C]2 | [D,^F,A,C]2 [D,,D,]2 [D,F,A,C]2 [^F,,F,]2 | %11
 [G,,D,G,]2 [G,,,G,,]2 [G,B,^D]2 [G,,,G,,]C,,- | [C,,G,,E,]2 .[G,CE]2 [G,,,G,,]2 .[G,CE]2 | %13
 [C,,C,]2 .[G,CE]2 [G,,,G,,]2 [C,,C,][^C,,^C,] | [D,,D,]2 .[D,^F,A,C]2 [A,,,A,,]2 .[D,F,A,C]2 | %15
 [D,,D,]2 .[D,^F,A,C]2 [A,,,A,,]2 [D,,D,][^D,,^D,] | [E,,E,]2 .[E,^G,B,D]2 [^G,,G,]2 .[E,G,B,D]2 | %17
 [A,,E,A,]2 .[E,A,C]2 [E,,E,]2 .[E,A,C]2 |1 [D,^F,A,C]2 [D,,D,]2 [D,=F,G,B,]2 .[D,F,G,B,]2 | %19
 [C,G,C]2 [F,,F,]2 [C,,C,][A,,,A,,][G,,,G,,]C,, :|2 [D,^F,A,C]2 [D,,D,]2 [D,=F,G,B,]2 .[G,,,G,,]2 | %21
 [C,G,C]2 [F,,F,]2 [C,C][A,,A,][G,,G,][E,,E,] |: [C,,C,]2 .[E,G,C]2 [_A,,_E,_A,]2 .[E,A,C]2 | %23
 [_G,,_D,_G,]2 .[G,_B,_D]2 [=G,,F,]2 .[F,=G,=B,=D]C,,- | %24
 [C,,G,,E,]2 [G,CE]2 .[C,,C,]2 [F,,C,F,]2- | [F,,C,F,] [G,,D,G,]3 [F,,C,F,]2 [G,,D,F,]2 | %26
 [C,,G,,C,]2 .[E,G,C]2 [_A,,_E,_A,]2 .[E,A,C]2 | %27
 [_G,,_D,_G,]2 .[G,_B,_D]2 [=G,,F,]2 .[F,=G,=B,=D]2 | %28
 [E,,B,,E,]2 .[^G,B,E]2 [B,,,B,,]2 [D,,A,,D,]2- | %29
 [D,,A,,D,] [C,,G,,C,]3 [D,,A,,D,]2 [E,,B,,E,]D,,- | [D,,F,]2 .[F,A,D]2 [D,,D,]2 .[F,A,D]2 | %31
 [F,,F,]2 .[F,_A,CD]2 [_A,,A,]2 .[^F,A,CD]2 | [G,E]2 [E,C]2 [C,_A,]2 [_A,,F,]2 | %33
 [G,,E,]E,,-[E,,G,]D,,- [D,,^F,]D,,-[D,,=F,]C,,- | [C,,G,,E,]2 .[E,G,C]2 [A,,E,A,]2 .[A,CE]D,,- | %35
 [D,,A,,^F,]2 .[D,F,A,C]2 [G,,D,=F,]2 .[F,G,B,D]2 | %36
 [C,G,C]F,,-[F,,C,F,]G,,- [G,,D,F,]G,,- [G,,D,F,]2 |1 %37
 [C,E,G,]2 [^C,^A,][D,B,]- [D,B,]2 [G,,D,F,]C,, :|2 %38
 [C,E,G,]2 [^C,^A,][D,B,]- [D,B,]2 [G,,D,F,]C,,- || [C,,G,,E,]2 .[G,CE]2 [G,,,G,,]2 .[G,CE]2 | %40
 [C,,C,]2 .[G,CE][G,,,G,,]- [G,,,G,,] [C,,C,]2 [^C,,^C,] | %41
 [D,,D,]2 .[D,^F,A,C]2 [A,,,A,,]2 .[D,F,A,C]2 | %42
 [D,,D,]2 .[D,^F,A,C][A,,,A,,]- [A,,,A,,] [D,,D,]2 [^D,,^D,] | %43
 [E,,E,]2 .[E,^G,B,D]2 [^G,,G,]2 .[E,G,B,D]2 | [A,,E,A,]2 .[E,A,C]2 [E,,E,]2 .[E,A,C]2 | %45
 [D,^F,A,C]2 [D,,D,]2 [D,F,A,C]2 [^F,,F,]2 | [G,,D,G,]2 [G,,,G,,]2 [G,B,^D]2 [G,,,G,,]C,,- | %47
 [C,,G,,E,]2 .[G,CE]2 [G,,,G,,]2 .[G,CE]2 | %48
 [C,,C,]2 .[G,CE][G,,,G,,]- [G,,,G,,] [C,,C,]2 [^C,,^C,] | %49
 [D,,D,]2 .[D,^F,A,C]2 [A,,,A,,]2 .[D,F,A,C]2 | %50
 [D,,D,]2 .[D,^F,A,C][A,,,A,,]- [A,,,A,,] [D,,D,]2 [^D,,^D,] | %51
 [E,,E,]2 .[E,^G,B,D]2 [^G,,G,]2 .[E,G,B,D]2 | [A,,E,A,]2 .[E,A,C]2 [C,,C,]2 .[E,A,C]2 | %53
 [D,^F,A,C]2 [D,,D,]2 [D,=F,G,B,]2 .[G,,D,F,]2 | [C,G,C]2 [F,,F,]2 [C,,C,]2 [^C,,^C,]D,,- |: %55
 [D,,F,]2 .[G,B,DF]2 G,,,2 .[G,B,DF]C,,- | [C,,G,,E,]2 .[G,CE]E,,- [E,,G,]2 .[G,CE]D,,- | %57
 [D,,F,]2 .[G,B,D]2 G,,,2 .[G,B,D]G,,- | [G,,E,_B,]2 [C,,C,]2 [G,B,CE]2 [E,,E,]F,,- | %59
 [F,,C,A,]2 .[A,CF]2 [A,,A,]2 [_A,,_A,]2 | [G,,G,]2 .[G,CE]2 [A,,E,A,]2 .[A,CE]2 | %61
 [^F,,^D,A,]2 .[^F,A,B,^D]2 [B,,,B,,]2 .[F,A,B,D]2 | [E,,E,]2 [_E,,_E,]2 [D,,D,]2 [G,,,G,,]D,,- | %63
 [D,,F,]2 .[G,B,DF]2 G,,,2 .[G,B,DF]C,,- | [C,,G,,E,]2 .[G,CE]E,,- [E,,G,]2 .[G,CE]D,,- | %65
 [D,,F,]2 .[G,B,D]2 G,,,2 .[G,B,D]G,,- | [G,,E,_B,]2 [C,,C,]2 [G,B,CE]2 [E,,E,]F,,- | %67
 [F,,C,A,]2 .[A,CF]2 [_A,,_A,]2 .[A,CF]2 | %68
 [G,,G,]2 .[G,CE][_A,,_E,_A,]- [A,,E,A,][=A,,=E,=A,][_B,,_B,][=B,,=B,] | %69
 [C,C]2 .[G,CE]D,,- [D,,^F,]G,,-[G,,D,=F,]C,- |1 %70
 [C,G,C]G,,-[G,,D,F,]C,,- [C,,G,,E,]^C,,-[C,,E,]D,, :|2 %71
 [C,G,C]G,,-[G,,D,F,]C,,- [C,,G,,E,]^C,,-[C,,E,]D,,- |: %72
 [D,,F,]2 .[D,F,G,B,]2 [G,,,G,,]2 .[D,F,G,B,]D,,- | %73
 [D,,F,]2 .[D,F,G,B,]2 [G,,,G,,]2 .[D,F,G,B,]C,,- | [C,,G,,E,]2 .[G,CE]2 [G,,,G,,]2 .[G,CE]C,,- | %75
 [C,,G,,E,]2 .[G,CE]2 [C,,C,]2 [^C,,^C,]D,,- | [D,,F,]2 .[G,B,DF]2 [G,,G,]2 .[G,B,DF]C,,- | %77
 [C,,G,,E,]2 .[G,CE]2 [E,,E,]2 .[G,CE]2 |!ped! [D,,D,]2 (3D,^F,A, D2!ped-up! [D,,D,]2 | %79
!ped! [G,,,G,,]2 (3G,B,D G2!ped-up! [^C,,^C,]2 | [D,,D,]2 .[D,F,G,B,]2 [G,,,G,,]2 .[D,F,G,B,]2 | %81
 [D,,D,]2 .[D,F,G,B,]2 [G,,,G,,]2 .[D,F,G,B,]C,,- | [C,,G,,E,]2 .[G,CE]2 [G,,,G,,]2 .[G,CE]2 | %83
 [C,,C,]2 .[G,CE]2 [G,,,G,,]2 .[G,CE]2 | z2 [_A,C_E_A] z z [_E,A,CE] z2 | %85
 [C,_E,_A,C] z z [_A,,C,E,A,] z z [^F,,^F,]G,,- | [G,,B,]F,,-[F,,A,]_E,,- [E,,G,]D,,-[D,,F,]C,,- |1 %87
 [C,,E,]2 [C,,,C,,]2 [G,CE]2 [^C,,^C,]D,, :|2 [C,,E,]2 [C,,,C,,]2 .[G,CE]2 z2 |] %89

